symbols/web/edit_notifications/materialsymbolsoutlined/edit_notifications_wght200gradN25fill1_20px.svg

<svg xmlns="http://www.w3.org/2000/svg" height="20" width="20"><path d="M10.292 11.021h1.125l4.791-4.792-1.125-1.104-4.791 4.771Zm6.437-5.313-1.125-1.125.688-.666q.062-.084.125-.073.062.01.125.073l.854.854q.062.062.062.135 0 .073-.062.136ZM10 17.917q.583 0 .948-.365.364-.364.364-.948H8.688q0 .584.364.948.365.365.948.365Zm-6.167-2.334v-.854H5.5V8.562q0-1.583 1-2.843 1-1.261 2.646-1.573v-.563q0-.375.239-.614.24-.24.615-.24t.615.24q.239.239.239.614v.563q.458.104 1.021.333.563.229 1.021.604l-4.229 4.25v3.292h3.354l2.5-2.5v4.604h1.646v.854Z"/></svg>

<svg xmlns="http://www.w3.org/2000/svg" height="20" width="20"><path d="M10.292 11.021H11.417L16.208 6.229L15.083 5.125L10.292 9.896ZM16.729 5.708 15.604 4.583 16.292 3.917Q16.354 3.833 16.417 3.844Q16.479 3.854 16.542 3.917L17.396 4.771Q17.458 4.833 17.458 4.906Q17.458 4.979 17.396 5.042ZM10 17.917Q10.583 17.917 10.948 17.552Q11.312 17.188 11.312 16.604H8.688Q8.688 17.188 9.052 17.552Q9.417 17.917 10 17.917ZM3.833 15.583V14.729H5.5V8.562Q5.5 6.979 6.5 5.719Q7.5 4.458 9.146 4.146V3.583Q9.146 3.208 9.385 2.969Q9.625 2.729 10 2.729Q10.375 2.729 10.615 2.969Q10.854 3.208 10.854 3.583V4.146Q11.312 4.25 11.875 4.479Q12.438 4.708 12.896 5.083L8.667 9.333V12.625H12.021L14.521 10.125V14.729H16.167V15.583Z"/></svg>
